dist/assets/img/cards/text.svg

<svg width="260" height="100" viewBox="0 0 260 100" fill="none" xmlns="http://www.w3.org/2000/svg">
<path d="M0 3.38953C0 1.51754 1.51755 0 3.38953 0H256.61C258.482 0 260 1.51755 260 3.38953V96.6105C260 98.4825 258.482 100 256.61 100H3.38952C1.51753 100 0 98.4825 0 96.6105V3.38953Z" fill="white"/>
<g filter="url(#filter0_d)">
<path d="M26.4625 36.4583C26.2416 36.4583 26.0625 36.2792 26.0625 36.0583V30.0875C26.0625 29.8666 26.2416 29.6875 26.4625 29.6875H55.0121C55.233 29.6875 55.4121 29.8666 55.4121 30.0875V36.0583C55.4121 36.2792 55.233 36.4583 55.0121 36.4583H44.406V63.1417C44.406 63.3626 44.2269 63.5417 44.006 63.5417H37.4686C37.2477 63.5417 37.0686 63.3626 37.0686 63.1417V36.4583H26.4625Z" fill="white"/>
<path d="M59.8578 44.6801C59.6369 44.6801 59.4578 44.501 59.4578 44.2801V39.2765C59.4578 39.0556 59.6369 38.8765 59.8578 38.8765H82.5375C82.7584 38.8765 82.9375 39.0556 82.9375 39.2765V44.2801C82.9375 44.501 82.7584 44.6801 82.5375 44.6801H74.6218V63.1417C74.6218 63.3626 74.4427 63.5417 74.2218 63.5417H68.1735C67.9526 63.5417 67.7735 63.3626 67.7735 63.1417V44.6801H59.8578Z" fill="white"/>
<path d="M26.4625 36.4583C26.2416 36.4583 26.0625 36.2792 26.0625 36.0583V30.0875C26.0625 29.8666 26.2416 29.6875 26.4625 29.6875H55.0121C55.233 29.6875 55.4121 29.8666 55.4121 30.0875V36.0583C55.4121 36.2792 55.233 36.4583 55.0121 36.4583H44.406V63.1417C44.406 63.3626 44.2269 63.5417 44.006 63.5417H37.4686C37.2477 63.5417 37.0686 63.3626 37.0686 63.1417V36.4583H26.4625Z" stroke="#333A4A" stroke-width="2"/>
<path d="M59.8578 44.6801C59.6369 44.6801 59.4578 44.501 59.4578 44.2801V39.2765C59.4578 39.0556 59.6369 38.8765 59.8578 38.8765H82.5375C82.7584 38.8765 82.9375 39.0556 82.9375 39.2765V44.2801C82.9375 44.501 82.7584 44.6801 82.5375 44.6801H74.6218V63.1417C74.6218 63.3626 74.4427 63.5417 74.2218 63.5417H68.1735C67.9526 63.5417 67.7735 63.3626 67.7735 63.1417V44.6801H59.8578Z" stroke="#333A4A" stroke-width="2"/>
</g>
<path d="M99.18 45.42V42.9H109.98V45.42H105.93V55.5H103.23V45.42H99.18ZM111.153 54.366C110.205 53.418 109.731 52.266 109.731 50.91C109.731 49.554 110.205 48.408 111.153 47.472C112.113 46.524 113.289 46.05 114.681 46.05C116.097 46.05 117.261 46.518 118.173 47.454C119.085 48.39 119.541 49.542 119.541 50.91V51.45H112.341C112.437 52.05 112.707 52.56 113.151 52.98C113.595 53.4 114.105 53.61 114.681 53.61C115.317 53.61 115.863 53.43 116.319 53.07C116.499 52.914 116.643 52.734 116.751 52.53H119.451C119.247 53.142 118.947 53.682 118.551 54.15C117.591 55.23 116.301 55.77 114.681 55.77C113.289 55.77 112.113 55.302 111.153 54.366ZM112.431 49.92H116.841C116.745 49.44 116.499 49.038 116.103 48.714C115.719 48.378 115.245 48.21 114.681 48.21C114.117 48.21 113.637 48.372 113.241 48.696C112.845 49.02 112.575 49.428 112.431 49.92ZM120.903 55.5V46.32H123.423V49.74H124.503L126.933 46.32H129.723L126.753 50.55L129.993 55.5H127.113L124.773 51.9H123.423V55.5H120.903ZM131.257 54.366C130.309 53.418 129.835 52.266 129.835 50.91C129.835 49.554 130.309 48.408 131.257 47.472C132.217 46.524 133.393 46.05 134.785 46.05C136.453 46.05 137.725 46.65 138.601 47.85C138.997 48.366 139.285 48.966 139.465 49.65H136.855C136.747 49.386 136.603 49.146 136.423 48.93C135.967 48.45 135.421 48.21 134.785 48.21C134.149 48.21 133.597 48.462 133.129 48.966C132.673 49.47 132.445 50.118 132.445 50.91C132.445 51.702 132.673 52.35 133.129 52.854C133.597 53.358 134.149 53.61 134.785 53.61C135.421 53.61 135.967 53.37 136.423 52.89C136.603 52.674 136.747 52.434 136.855 52.17H139.465C139.297 52.866 139.021 53.466 138.637 53.97C137.761 55.17 136.477 55.77 134.785 55.77C133.393 55.77 132.217 55.302 131.257 54.366ZM139.844 48.48V46.32H148.484V48.48H145.424V55.5H142.904V48.48H139.844Z" fill="#333A4A"/>
<path d="M3.38953 2H256.61V-2H3.38953V2ZM258 3.38953V96.6105H262V3.38953H258ZM256.61 98H3.38952V102H256.61V98ZM2 96.6105V3.38953H-2V96.6105H2ZM3.38952 98C2.62211 98 2 97.3779 2 96.6105H-2C-2 99.587 0.412951 102 3.38952 102V98ZM258 96.6105C258 97.3779 257.378 98 256.61 98V102C259.587 102 262 99.587 262 96.6105H258ZM256.61 2C257.378 2 258 2.6221 258 3.38953H262C262 0.412987 259.587 -2 256.61 -2V2ZM3.38953 -2C0.412977 -2 -2 0.412973 -2 3.38953H2C2 2.62211 2.62211 2 3.38953 2V-2Z" fill="#333A4A"/>
<defs>
<filter id="filter0_d" x="25.0625" y="28.6875" width="60.875" height="37.8541" filterUnits="userSpaceOnUse" color-interpolation-filters="sRGB">
<feFlood flood-opacity="0" result="BackgroundImageFix"/>
<feColorMatrix in="SourceAlpha" type="matrix" values="0 0 0 0 0 0 0 0 0 0 0 0 0 0 0 0 0 0 127 0" result="hardAlpha"/>
<feOffset dx="2" dy="2"/>
<feColorMatrix type="matrix" values="0 0 0 0 0.2 0 0 0 0 0.227451 0 0 0 0 0.290196 0 0 0 1 0"/>
<feBlend mode="normal" in2="BackgroundImageFix" result="effect1_dropShadow"/>
<feBlend mode="normal" in="SourceGraphic" in2="effect1_dropShadow" result="shape"/>
</filter>
</defs>
</svg>

<svg width="260" height="100" viewBox="0 0 260 100" fill="none" xmlns="http://www.w3.org/2000/svg"><path d="M0 3.39A3.39 3.39 0 013.39 0h253.22A3.39 3.39 0 01260 3.39v93.22a3.39 3.39 0 01-3.39 3.39H3.39A3.39 3.39 0 010 96.61V3.39z" fill="#fff"/><g filter="url(#filter0_d)"><path d="M26.462 36.458a.4.4 0 01-.4-.4v-5.97a.4.4 0 01.4-.4h28.55a.4.4 0 01.4.4v5.97a.4.4 0 01-.4.4H44.406v26.684a.4.4 0 01-.4.4h-6.537a.4.4 0 01-.4-.4V36.458H26.462zm33.396 8.222a.4.4 0 01-.4-.4v-5.004a.4.4 0 01.4-.4h22.68c.22 0 .4.18.4.4v5.004a.4.4 0 01-.4.4h-7.916v18.462a.4.4 0 01-.4.4h-6.048a.4.4 0 01-.4-.4V44.68h-7.916z" fill="#fff"/><path d="M26.462 36.458a.4.4 0 01-.4-.4v-5.97a.4.4 0 01.4-.4h28.55a.4.4 0 01.4.4v5.97a.4.4 0 01-.4.4H44.406v26.684a.4.4 0 01-.4.4h-6.537a.4.4 0 01-.4-.4V36.458H26.462zm33.396 8.222a.4.4 0 01-.4-.4v-5.004a.4.4 0 01.4-.4h22.68c.22 0 .4.18.4.4v5.004a.4.4 0 01-.4.4h-7.916v18.462a.4.4 0 01-.4.4h-6.048a.4.4 0 01-.4-.4V44.68h-7.916z" stroke="#333A4A" stroke-width="2"/></g><path d="M99.18 45.42V42.9h10.8v2.52h-4.05V55.5h-2.7V45.42h-4.05zm11.973 8.946c-.948-.948-1.422-2.1-1.422-3.456 0-1.356.474-2.502 1.422-3.438.96-.948 2.136-1.422 3.528-1.422 1.416 0 2.58.468 3.492 1.404.912.936 1.368 2.088 1.368 3.456v.54h-7.2c.096.6.366 1.11.81 1.53.444.42.954.63 1.53.63.636 0 1.182-.18 1.638-.54.18-.156.324-.336.432-.54h2.7a4.858 4.858 0 01-.9 1.62c-.96 1.08-2.25 1.62-3.87 1.62-1.392 0-2.568-.468-3.528-1.404zm1.278-4.446h4.41a2.038 2.038 0 00-.738-1.206c-.384-.336-.858-.504-1.422-.504s-1.044.162-1.44.486a2.428 2.428 0 00-.81 1.224zm8.472 5.58v-9.18h2.52v3.42h1.08l2.43-3.42h2.79l-2.97 4.23 3.24 4.95h-2.88l-2.34-3.6h-1.35v3.6h-2.52zm10.354-1.134c-.948-.948-1.422-2.1-1.422-3.456 0-1.356.474-2.502 1.422-3.438.96-.948 2.136-1.422 3.528-1.422 1.668 0 2.94.6 3.816 1.8.396.516.684 1.116.864 1.8h-2.61a2.735 2.735 0 00-.432-.72c-.456-.48-1.002-.72-1.638-.72-.636 0-1.188.252-1.656.756-.456.504-.684 1.152-.684 1.944s.228 1.44.684 1.944c.468.504 1.02.756 1.656.756.636 0 1.182-.24 1.638-.72.18-.216.324-.456.432-.72h2.61c-.168.696-.444 1.296-.828 1.8-.876 1.2-2.16 1.8-3.852 1.8-1.392 0-2.568-.468-3.528-1.404zm8.587-5.886v-2.16h8.64v2.16h-3.06v7.02h-2.52v-7.02h-3.06zM3.39 2h253.22v-4H3.39v4zM258 3.39v93.22h4V3.39h-4zM256.61 98H3.39v4h253.22v-4zM2 96.61V3.39h-4v93.22h4zM3.39 98A1.39 1.39 0 012 96.61h-4A5.39 5.39 0 003.39 102v-4zM258 96.61a1.39 1.39 0 01-1.39 1.39v4a5.39 5.39 0 005.39-5.39h-4zM256.61 2c.768 0 1.39.622 1.39 1.39h4A5.39 5.39 0 00256.61-2v4zM3.39-2A5.39 5.39 0 00-2 3.39h4C2 2.622 2.622 2 3.39 2v-4z" fill="#333A4A"/><defs><filter id="filter0_d" x="25.063" y="28.688" width="60.875" height="37.854" filterUnits="userSpaceOnUse" color-interpolation-filters="sRGB"><feFlood flood-opacity="0" result="BackgroundImageFix"/><feColorMatrix in="SourceAlpha" values="0 0 0 0 0 0 0 0 0 0 0 0 0 0 0 0 0 0 127 0" result="hardAlpha"/><feOffset dx="2" dy="2"/><feColorMatrix values="0 0 0 0 0.2 0 0 0 0 0.227451 0 0 0 0 0.290196 0 0 0 1 0"/><feBlend in2="BackgroundImageFix" result="effect1_dropShadow"/><feBlend in="SourceGraphic" in2="effect1_dropShadow" result="shape"/></filter></defs></svg>
